img/service-size-icon__12.svg

<svg width="25" height="21" viewBox="0 0 25 21" fill="none" xmlns="http://www.w3.org/2000/svg">
<path d="M17.4554 15.8555C17.1677 15.8555 16.9346 16.0887 16.9346 16.3763V18.313C16.9346 18.6007 17.1678 18.8338 17.4554 18.8338C17.7431 18.8338 17.9763 18.6006 17.9763 18.313V16.3763C17.9763 16.0887 17.7431 15.8555 17.4554 15.8555Z" fill="black"/>
<path d="M17.4554 15.4008C17.743 15.4008 17.9763 15.1676 17.9763 14.8799V14.8675C17.9763 14.5798 17.743 14.3467 17.4554 14.3467C17.1678 14.3467 16.9346 14.5799 16.9346 14.8675V14.8799C16.9346 15.1676 17.1678 15.4008 17.4554 15.4008Z" fill="black"/>
<path d="M24.9996 6.58935C24.9805 6.22476 24.7707 5.92856 24.4764 5.5501L21.4109 1.60737C20.6008 0.561426 20.231 0.0839844 18.6379 0.0839844H17.2188C17.0652 0.0839844 16.9194 0.151807 16.8204 0.269385C15.7515 1.53877 14.1771 2.2668 12.501 2.2668C10.8248 2.2668 9.25042 1.53877 8.18147 0.269385C8.0825 0.151856 7.93665 0.0839844 7.78303 0.0839844H6.36399C4.77078 0.0839844 4.401 0.561426 3.5909 1.60747L0.525417 5.5501C0.23113 5.92861 0.0213157 6.22471 0.00232158 6.58935C-0.0213601 7.04341 0.271902 7.39194 0.548611 7.68296L2.71531 9.96226C3.13748 10.4077 3.41634 10.7019 3.84383 10.7019C4.24099 10.7019 4.54441 10.4278 4.8719 10.0967L5.02146 9.94551L4.93611 19.0815C4.92928 19.8173 4.92512 20.2614 5.24744 20.5866C5.57503 20.9173 6.07859 20.9173 6.71599 20.9173H18.2859C18.9234 20.9173 19.4269 20.9173 19.7544 20.5866C20.0767 20.2614 20.0726 19.8172 20.0658 19.0815L19.9805 9.94556L20.13 10.0967C20.4575 10.4278 20.761 10.702 21.158 10.702C21.5855 10.702 21.8644 10.4078 22.2865 9.9625L24.4533 7.68306C24.73 7.39194 25.0233 7.04336 24.9996 6.58935ZM23.6983 6.96519L21.5303 9.2458C21.395 9.38857 21.2457 9.54614 21.1521 9.62607C21.099 9.58452 21.0121 9.50727 20.8706 9.36411L19.818 8.29985C19.6689 8.14907 19.4433 8.10371 19.2474 8.1852C19.0516 8.2667 18.9248 8.45884 18.9268 8.6709L19.0241 19.0912C19.0266 19.3681 19.0298 19.7049 19.0024 19.8432C18.8559 19.8756 18.4917 19.8756 18.2858 19.8756H6.71594C6.51004 19.8756 6.14588 19.8756 5.99944 19.8432C5.9721 19.7049 5.97517 19.368 5.97776 19.0912L6.07503 8.67085C6.07703 8.45874 5.95022 8.26665 5.75437 8.18516C5.55847 8.10361 5.33289 8.14897 5.18377 8.2998L4.13123 9.36401C3.98968 9.50708 3.90276 9.58437 3.84968 9.62598C3.75613 9.546 3.60677 9.38838 3.47132 9.24556L1.30354 6.96504C1.10432 6.75552 1.05613 6.66655 1.04456 6.63784C1.07259 6.54341 1.27122 6.28784 1.34773 6.18945L4.29466 2.39956L4.41433 2.24526C5.16599 1.27485 5.28147 1.12568 6.36389 1.12568H7.54656C8.80799 2.51592 10.5996 3.30845 12.5009 3.30845C14.4021 3.30845 16.1937 2.51597 17.4551 1.12568H18.6378C19.7201 1.12568 19.8356 1.2748 20.5872 2.24521L23.6539 6.1895C23.7304 6.28794 23.9292 6.54346 23.9572 6.63789C23.9457 6.6667 23.8976 6.75566 23.6983 6.96519Z" fill="black"/>
<path d="M6.86803 2.17279C6.8671 2.17279 6.86622 2.17279 6.86525 2.17279C5.83688 2.17816 5.57154 2.45907 4.81007 3.4326C4.63287 3.65921 4.67281 3.98656 4.89938 4.1638C4.99469 4.23827 5.10773 4.27445 5.21993 4.27445C5.37467 4.27445 5.52789 4.2058 5.63063 4.0745C6.30084 3.21751 6.31149 3.21746 6.87071 3.21458C7.15836 3.21307 7.39039 2.97869 7.38888 2.691C7.38736 2.40418 7.1545 2.17279 6.86803 2.17279Z" fill="black"/>
<path d="M4.62766 4.52529C4.40251 4.34624 4.07482 4.38369 3.89577 4.60884L3.88059 4.62837C3.70373 4.85528 3.74431 5.18257 3.97121 5.35938C4.06633 5.43355 4.17902 5.46944 4.29108 5.46944C4.44616 5.46939 4.59953 5.40049 4.70227 5.26875L4.71159 5.25679C4.89025 5.03164 4.85275 4.7042 4.62766 4.52529Z" fill="black"/>
<path d="M15.7794 7.38638L13.9782 6.86802L12.9343 5.31953C12.8376 5.17603 12.6759 5.08994 12.5028 5.08984C12.5029 5.08984 12.5027 5.08984 12.5028 5.08984C12.3298 5.08984 12.1678 5.17568 12.0709 5.31904L11.0212 6.87187L9.22607 7.38613C9.05971 7.43384 8.92782 7.56099 8.87421 7.72558C8.82065 7.89018 8.85234 8.07061 8.95873 8.20713L10.1112 9.6853L10.0456 11.5516C10.0395 11.7246 10.1198 11.8893 10.2597 11.9911C10.3499 12.0567 10.4575 12.0908 10.5662 12.0908C10.6259 12.0908 10.686 12.0805 10.7438 12.0595L12.5057 11.4202L14.2604 12.0593C14.423 12.1185 14.6044 12.093 14.7445 11.9915C14.8846 11.8898 14.9651 11.7252 14.9592 11.5522L14.8956 9.67895L16.0456 8.20766C16.1522 8.07129 16.1841 7.89087 16.1307 7.72622C16.0774 7.56162 15.9457 7.43423 15.7794 7.38638ZM13.9583 9.18662C13.8829 9.28306 13.844 9.40283 13.8481 9.52509L13.892 10.8164L12.6843 10.3765C12.5693 10.3346 12.4433 10.3345 12.3284 10.3763L11.1139 10.8171L11.159 9.53266C11.1633 9.4104 11.1245 9.29057 11.0492 9.19409L10.2547 8.1751L11.4902 7.82109C11.6078 7.7874 11.7098 7.71343 11.7783 7.61206L12.5019 6.5416L13.2203 7.60727C13.2887 7.70869 13.3906 7.78286 13.5081 7.81665L14.7498 8.17402L13.9583 9.18662Z" fill="black"/>
</svg>

<svg width="25" height="21" fill="none" xmlns="http://www.w3.org/2000/svg"><path d="M17.455 15.855a.52.52 0 00-.52.521v1.937a.52.52 0 101.041 0v-1.937a.52.52 0 00-.52-.52zm0-.455a.52.52 0 00.521-.52v-.013a.52.52 0 00-1.041 0v.013c0 .288.233.52.52.52z" fill="#000"/><path d="M25 6.59c-.02-.365-.23-.661-.524-1.04l-3.065-3.943C20.6.561 20.23.084 18.638.084h-1.42a.52.52 0 00-.398.185 5.629 5.629 0 01-4.319 1.998A5.63 5.63 0 018.181.269a.521.521 0 00-.398-.185H6.364c-1.593 0-1.963.477-2.773 1.523L.525 5.55c-.294.379-.504.675-.523 1.04-.023.453.27.802.547 1.093l2.166 2.28c.422.445.701.739 1.129.739.397 0 .7-.274 1.028-.605l.15-.151-.086 9.135c-.007.736-.01 1.18.311 1.506.328.33.832.33 1.469.33h11.57c.637 0 1.14 0 1.468-.33.323-.326.319-.77.312-1.506l-.085-9.135.149.15c.328.332.631.606 1.028.606.427 0 .706-.294 1.128-.74l2.167-2.279c.277-.291.57-.64.547-1.094zm-1.302.375l-2.168 2.28a5.95 5.95 0 01-.378.381 3.246 3.246 0 01-.281-.262L19.818 8.3a.521.521 0 00-.891.37l.097 10.421c.003.277.006.614-.022.752-.146.033-.51.033-.716.033H6.716c-.206 0-.57 0-.717-.033-.027-.138-.024-.475-.021-.752l.097-10.42a.52.52 0 00-.891-.371L4.13 9.364c-.141.143-.228.22-.281.262-.094-.08-.243-.238-.379-.38L1.304 6.965c-.2-.21-.248-.298-.26-.327.029-.095.227-.35.304-.449L4.295 2.4l.12-.154c.751-.97.866-1.12 1.949-1.12h1.183A6.672 6.672 0 0012.5 3.309a6.671 6.671 0 004.954-2.182h1.183c1.082 0 1.198.149 1.95 1.12l3.066 3.943c.076.099.275.354.303.449-.011.029-.06.118-.259.327z" fill="#000"/><path d="M6.868 2.173h-.003c-1.028.005-1.293.286-2.055 1.26a.52.52 0 00.82.641c.67-.856.681-.857 1.24-.86a.52.52 0 00-.002-1.041zm-2.24 2.352a.52.52 0 00-.732.084l-.015.02a.52.52 0 10.821.64l.01-.012a.52.52 0 00-.084-.732zM15.78 7.386l-1.802-.518-1.044-1.548a.521.521 0 00-.863 0l-1.05 1.552-1.795.514a.521.521 0 00-.267.821l1.152 1.478-.065 1.867a.52.52 0 00.698.508l1.762-.64 1.754.64a.521.521 0 00.7-.508l-.064-1.873 1.15-1.471a.52.52 0 00-.267-.822zm-1.822 1.8a.521.521 0 00-.11.34l.044 1.29-1.208-.44a.52.52 0 00-.356 0l-1.214.441.045-1.284a.52.52 0 00-.11-.339l-.794-1.019 1.235-.354a.52.52 0 00.288-.209l.724-1.07.718 1.065a.52.52 0 00.288.21l1.242.357-.792 1.013z" fill="#000"/></svg>
